icons/production/git.svg

<?xml version="1.0" encoding="UTF-8" standalone="no"?>
<svg width="24px" height="24px" viewBox="0 0 24 24" version="1.1" xmlns="http://www.w3.org/2000/svg">
<!--Generator: Sketch 3.8.3 (29802) - http://www.bohemiancoding.com/sketch-->
    <title>
        git
    </title>
    <desc>
        Created with Sketch.
    </desc>
    <g id="Page-1" stroke="none" stroke-width="1" fill="none" fill-rule="evenodd">
        <path d="M2,12.1949861 L2,11.8607242 C2.11267606,11.3036212 2.45070423,11.0807799 2.78873239,10.6350975 C4.5915493,8.85236769 6.3943662,7.06963788 8.1971831,5.28690808 C8.30985915,5.17548747 8.30985915,5.17548747 8.42253521,5.06406685 C8.42253521,5.06406685 8.53521127,5.06406685 8.53521127,5.17548747 C9.21126761,5.84401114 9.88732394,6.51253482 10.5633803,7.1810585 C10.6760563,7.29247911 10.6760563,7.40389972 10.5633803,7.51532033 C10.4507042,8.18384401 10.6760563,8.85236769 11.2394366,9.18662953 C11.4647887,9.29805014 11.4647887,9.40947075 11.4647887,9.63231198 L11.4647887,14.5348189 C11.4647887,14.7576602 11.3521127,14.8690808 11.2394366,14.9805014 C10.6760563,15.3147632 10.3380282,15.9832869 10.5633803,16.6518106 C10.7887324,17.3203343 11.3521127,17.7660167 12.028169,17.7660167 C12.7042254,17.7660167 13.2676056,17.3203343 13.4929577,16.7632312 C13.7183099,16.0947075 13.4929577,15.4261838 12.9295775,14.9805014 C12.7042254,14.8690808 12.7042254,14.7576602 12.7042254,14.5348189 L12.7042254,9.74373259 L12.7042254,9.52089136 L12.8169014,9.52089136 C13.3802817,10.0779944 14.056338,10.7465181 14.6197183,11.3036212 C14.7323944,11.4150418 14.7323944,11.5264624 14.7323944,11.5264624 L14.7323944,12.1949861 C14.8450704,13.086351 15.6338028,13.643454 16.5352113,13.5320334 C17.4366197,13.4206128 18.1126761,12.5292479 17.8873239,11.637883 C17.7746479,10.8579387 16.8732394,10.3008357 16.084507,10.4122563 C15.971831,10.4122563 15.8591549,10.4122563 15.6338028,10.3008357 C14.9577465,9.63231198 14.3943662,9.07520891 13.7183099,8.40668524 C13.6056338,8.29526462 13.6056338,8.18384401 13.6056338,8.0724234 C13.8309859,7.06963788 12.8169014,6.06685237 11.8028169,6.28969359 C11.6901408,6.28969359 11.4647887,6.28969359 11.4647887,6.17827298 C10.7887324,5.5097493 10.1126761,4.84122563 9.43661972,4.28412256 C9.32394366,4.17270195 9.32394366,4.06128134 9.43661972,3.94986072 C10,3.50417827 10.4507042,2.94707521 10.9014085,2.50139276 C11.5774648,1.83286908 12.2535211,1.83286908 12.9295775,2.50139276 C15.7464789,5.28690808 18.6760563,8.18384401 21.4929577,10.9693593 C22.1690141,11.637883 22.1690141,12.3064067 21.4929577,12.9749304 L13.2676056,21.1086351 C12.9295775,21.4428969 12.5915493,21.8885794 12.028169,22 L11.8028169,22 C11.5774648,21.8885794 11.2394366,21.7771588 11.0140845,21.5543175 C10.3380282,20.8857939 9.54929577,20.2172702 8.87323944,19.4373259 C6.84507042,17.4317549 4.81690141,15.4261838 2.67605634,13.3091922 C2.56338028,12.9749304 2.11267606,12.6406685 2,12.1949861 L2,12.1949861 Z" id="git" fill="#000"/>
    </g>
</svg>

<svg xmlns="http://www.w3.org/2000/svg" viewBox="0 0 24 24">
    <path fill-rule="evenodd" d="M2 12.195v-.334c.113-.557.45-.78.789-1.226l5.408-5.348.226-.223s.112 0 .112.111l2.028 2.006c.113.111.113.223 0 .334-.112.669.113 1.337.676 1.672.226.111.226.222.226.445v4.903c0 .223-.113.334-.226.446-.563.334-.901 1.002-.676 1.67.226.67.79 1.115 1.465 1.115.676 0 1.24-.446 1.465-1.003.225-.668 0-1.337-.563-1.782-.226-.112-.226-.223-.226-.446V9.52h.113l1.803 1.783a.343.343 0 0 1 .112.222v.669c.113.891.902 1.448 1.803 1.337.902-.111 1.578-1.003 1.352-1.894-.112-.78-1.014-1.337-1.802-1.226-.113 0-.226 0-.451-.111l-1.916-1.894c-.112-.112-.112-.223-.112-.335.225-1.002-.79-2.005-1.803-1.782-.113 0-.338 0-.338-.112-.676-.668-1.352-1.337-2.028-1.894-.113-.111-.113-.223 0-.334C10 3.504 10.45 2.947 10.9 2.5c.676-.668 1.353-.668 2.029 0l8.563 8.468c.676.669.676 1.337 0 2.006l-8.225 8.134c-.338.334-.676.78-1.24.891h-.225c-.226-.111-.564-.223-.789-.446-.676-.668-1.465-1.337-2.14-2.117L2.675 13.31c-.113-.334-.563-.668-.676-1.114z"/>
</svg>
